packages/components/bolt-icons/src/svgs/product/product/crm/sales-automation.svg

<svg id="b6ee4272-1dd7-4151-80d2-1f9bd915715e" data-name="Layer 1" xmlns="http://www.w3.org/2000/svg" viewBox="0 0 32 31.8"><title>sales automation</title><path d="M30,2H2V5.9H30Zm0-2a1.68,1.68,0,0,1,1.4.6A2.51,2.51,0,0,1,32,2V5.9a1.68,1.68,0,0,1-.6,1.4,2.25,2.25,0,0,1-1.4.6H2A1.68,1.68,0,0,1,.6,7.3,2.25,2.25,0,0,1,0,5.9V2A2,2,0,0,1,.6.6,1.82,1.82,0,0,1,2,0ZM26,14H6v3.9H26Zm0-2a1.68,1.68,0,0,1,1.4.6A2.51,2.51,0,0,1,28,14v3.9a1.68,1.68,0,0,1-.6,1.4,2.51,2.51,0,0,1-1.4.6H6a1.68,1.68,0,0,1-1.4-.6A2.25,2.25,0,0,1,4,17.9V14a2,2,0,0,1,.6-1.4A1.82,1.82,0,0,1,6,12ZM22,25.9H10v3.9H22Zm0-2a1.68,1.68,0,0,1,1.4.6,2.51,2.51,0,0,1,.6,1.4v3.9a2.05,2.05,0,0,1-2,2H10a1.68,1.68,0,0,1-1.4-.6A2.23,2.23,0,0,1,8,29.9V26a1.68,1.68,0,0,1,.6-1.4A2.51,2.51,0,0,1,10,24H22Z" fill="#1f2555" fill-rule="evenodd"/></svg>

<?xml version="1.0" encoding="utf-8"?>
<!-- Generator: Adobe Illustrator 24.0.3, SVG Export Plug-In . SVG Version: 6.00 Build 0)  -->
<svg version="1.1" id="b6ee4272-1dd7-4151-80d2-1f9bd915715e"
	 xmlns="http://www.w3.org/2000/svg" xmlns:xlink="http://www.w3.org/1999/xlink" x="0px" y="0px" viewBox="0 0 32 31.8"
	 enable-background="new 0 0 32 31.8" xml:space="preserve">
<path fill-rule="evenodd" clip-rule="evenodd" d="M30,2H2v3.9h28V2z M30,0c0.5,0,1.1,0.2,1.4,0.6C31.7,1,31.9,1.5,32,2v3.9
	c0,0.5-0.2,1.1-0.6,1.4C31,7.7,30.5,7.9,30,7.9H2c-0.5,0-1.1-0.2-1.4-0.6C0.2,6.9,0,6.4,0,5.9V2c0-0.5,0.2-1,0.6-1.4
	C1,0.2,1.5,0,2,0H30z M26,14H6v3.9h20V14z M26,12c0.5,0,1.1,0.2,1.4,0.6c0.3,0.4,0.5,0.9,0.6,1.4v3.9c0,0.5-0.2,1.1-0.6,1.4
	c-0.4,0.3-0.9,0.5-1.4,0.6H6c-0.5,0-1.1-0.2-1.4-0.6C4.2,18.9,4,18.4,4,17.9V14c0-0.5,0.2-1,0.6-1.4C5,12.2,5.5,12,6,12H26z
	 M22,25.9H10v3.9h12V25.9z M22,23.9c0.5,0,1.1,0.2,1.4,0.6c0.3,0.4,0.5,0.9,0.6,1.4v3.9c0,1.1-0.9,2-2,2H10c-0.5,0-1.1-0.2-1.4-0.6
	c-0.3-0.4-0.5-0.8-0.6-1.3V26c0-0.5,0.2-1.1,0.6-1.4C9,24.3,9.5,24.1,10,24h12V23.9z"/>
</svg>
